icons/circle-check.svg

<svg xmlns="http://www.w3.org/2000/svg" width="24" height="24" viewBox="0 0 24 24">
  <path d="M12,1 C18.0751322,1 23,5.92486775 23,12 C23,18.0751322 18.0751322,23 12,23 C5.92486775,23 1,18.0751322 1,12 C1,5.92486775 5.92486775,1 12,1 Z M16.6853647,8.27180001 C16.2831909,7.89328354 15.6503165,7.91246155 15.2718,8.3146353 L15.2718,8.3146353 L10.352,13.54 L8.72819999,11.8146353 L8.63655559,11.7286314 C8.25368331,11.4118643 7.68587261,11.4224002 7.3146353,11.7718 C6.91246155,12.1503165 6.89328354,12.7831909 7.27180001,13.1853647 L7.27180001,13.1853647 L9.62474118,15.6853647 L9.71331242,15.7688394 C10.1134372,16.1027381 10.7145073,16.0749132 11.0811412,15.6853647 L11.0811412,15.6853647 L16.7282,9.6853647 L16.808497,9.58868088 C17.1014998,9.18733072 17.056602,8.62119983 16.6853647,8.27180001 Z"/>
</svg>

<svg xmlns="http://www.w3.org/2000/svg" viewBox="0 0 24 24">
  <path d="M12 1a11 11 0 1 1 0 22 11 11 0 0 1 0-22zm4.69 7.27a1 1 0 0 0-1.42.04l-4.92 5.23-1.62-1.73-.1-.08a1 1 0 0 0-1.36 1.46l2.35 2.5.1.08a1 1 0 0 0 1.36-.08l5.65-6 .08-.1a1 1 0 0 0-.12-1.32z"/>
</svg>
